Papirus/24x24/panel/seafile-status-paused.svg

<?xml version="1.0" encoding="UTF-8" standalone="no"?>
<svg xmlns:dc="http://purl.org/dc/elements/1.1/" xmlns:cc="http://creativecommons.org/ns#" xmlns:rdf="http://www.w3.org/1999/02/22-rdf-syntax-ns#" xmlns:svg="http://www.w3.org/2000/svg" xmlns="http://www.w3.org/2000/svg" id="svg2" viewBox="0 0 24 24" version="1.1" width="24" height="24">
    <metadata id="metadata14">
        <rdf:RDF>
            <cc:Work rdf:about="">
                <dc:format>
                    image/svg+xml
                </dc:format>
                <dc:type rdf:resource="http://purl.org/dc/dcmitype/StillImage"/>
                <dc:title/>
            </cc:Work>
        </rdf:RDF>
    </metadata>
    <g transform="translate(1.0000003,2)" id="g4134">
        <path style="opacity:0.3;fill:#ffffff" d="m 8,4 0,0.017578 c -1.6566789,0 -2.999752,1.3413243 -3,2.9960938 L 5,7.2851562 C 4.6963349,7.108478 4.3514234,7.0148399 4,7.0136719 c -1.1047071,0 -2.0001946,0.8946129 -2,1.9980469 l -0.5,0 c -0.2763678,-3e-7 -0.50031889,0.2239509 -0.5,0.5 7.596e-4,0.2752864 0.2243949,0.4980482 0.5,0.4980472 l 0.7714844,0 2.2890625,0 C 5.2568569,8.8236335 6.5333,8.0117188 8,8.0117188 l 0.00195,0 C 8.53508,8.0125178 9.0518533,8.1298647 9.5351531,8.3320312 9.8638193,7.5869909 10.343454,6.9277714 10.933594,6.3964844 10.648606,5.0037463 9.4231687,4.0026732 8,4 Z m 6.5,2.0117188 0,0.00391 c -2.2208,0 -4.106906,1.6234366 -4.441406,3.8164062 C 9.5025335,9.3057348 8.766,9.0129172 8,9.0117188 c -1.6569,0 -3,1.3411022 -3,2.9960932 0.00109,0.343205 0.06121,0.682933 0.1777344,1.00586 -0.0591,-0.01 -0.1184044,-0.0098 -0.1777344,-0.0098 -1.1046,0 -2,0.89472 -2,1.998047 C 3,16.105314 3.89543,17 5,17 l 1.0449219,0 c 0.37118,-0.102482 0.6489569,-0.203833 0.9667969,-0.478516 0.33976,-0.293761 3.4976532,-5.498047 6.3769532,-5.498046 0,0 0.425285,-0.01631 0.611328,-0.02344 1.656854,0 3,1.343146 3,3 0,1.656854 -1.343146,3 -3,3 l 4.5,0 C 19.8807,17 21,15.881062 21,14.501953 20.99954,13.21314 20.017182,12.137439 18.732422,12.017578 18.907542,11.533348 18.99806,11.022719 19,10.507812 19,8.0253773 16.9853,6.0117188 14.5,6.0117188 Z" id="path6"/>
        <path style="opacity:1;fill:#ffffff;fill-opacity:1;stroke:none;stroke-width:2;stroke-linecap:round;stroke-linejoin:round;stroke-miterlimit:4;stroke-dasharray:none;stroke-opacity:1" d="m 12,12 0,4 1,0 0,-4 -1,0 z m 2,0 0,4 1,0 0,-4 -1,0 z" id="rect4137"/>
    </g>
</svg>

<?xml version="1.0" encoding="UTF-8" standalone="no"?>
<svg id="svg2" xmlns:rdf="http://www.w3.org/1999/02/22-rdf-syntax-ns#" xmlns="http://www.w3.org/2000/svg" viewBox="0 0 24 24" width="24" version="1.1" xmlns:cc="http://creativecommons.org/ns#" height="24" xmlns:dc="http://purl.org/dc/elements/1.1/">
 <metadata id="metadata14">
  <rdf:RDF>
   <cc:Work rdf:about="">
    <dc:format>image/svg+xml</dc:format>
    <dc:type rdf:resource="http://purl.org/dc/dcmitype/StillImage"/>
    <dc:title/>
   </cc:Work>
  </rdf:RDF>
 </metadata>
 <g id="g4134" fill="#fff" transform="translate(1 2)">
  <path id="path6" opacity=".3" d="m8 4v0.017578c-1.6567 0-2.9998 1.3413-3 2.9961v0.2715c-0.3037-0.1767-0.6486-0.2704-1-0.2715-1.1047 0-2.0002 0.89461-2 1.998h-0.5c-0.27637-3e-7 -0.50032 0.22395-0.5 0.5 0.0007596 0.27529 0.22439 0.49805 0.5 0.49805h0.77148 2.2891c0.6963-1.1864 1.9727-1.9983 3.4394-1.9983h0.00195c0.5331 0.0008 1.0499 0.1182 1.5332 0.3203 0.3286-0.745 0.8078-1.4042 1.3988-1.9355-0.285-1.3928-1.5108-2.3938-2.934-2.3965zm6.5 2.0117v0.00391c-2.2208 0-4.1069 1.6234-4.4414 3.8164-0.5565-0.5263-1.293-0.8191-2.059-0.8203-1.6569 0-3 1.3411-3 2.9961 0.00109 0.3432 0.06121 0.68293 0.17773 1.0059-0.0591-0.01-0.1184-0.0098-0.17773-0.0098-1.1046 0-2 0.89472-2 1.998 0 1.103 0.8954 1.998 2 1.998h1.0449c0.37118-0.10248 0.64896-0.20383 0.9668-0.47852 0.33976-0.29376 3.4977-5.498 6.377-5.498 0 0 0.42528-0.01631 0.61133-0.02344 1.6569 0 3 1.3431 3 3s-1.3431 3-3 3h4.5c1.381 0 2.5-1.119 2.5-2.498 0-1.289-0.983-2.365-2.268-2.484 0.176-0.485 0.266-0.995 0.268-1.51 0-2.4826-2.015-4.4963-4.5-4.4963z"/>
  <path id="rect4137" d="m12 12v4h1v-4h-1zm2 0v4h1v-4h-1z"/>
 </g>
</svg>
